X: 142
T: Cantantibus organis – Allegro
C: Franciszek Walczyński
%%abc-version 2.0
%%abcx-abcm2ps-target-version 5.9.1 (29 Sep 2008)
%%abc-creator hum2abc beta
%%abcx-conversion-date 2021/10/04 07:38:38
%%abc-edited-by Andrzej Kubiczek
%%abc-edited-by Anastazja Marusiak
%%abcx-initial-encoding-date 2021-07-28
%%humdrum-veritas 1020617919
%%humdrum-veritas-data 2043431768
%%linebreak <none>
%%barnumbers 0
L: 1/4
M: 3/4
N: Derived from pl-kozmzk--mzk-m-346--044_walczynski-franciszek--cantantibus-organis-allegro.krn
Q: "Allegro."
%%staves {1 2}
V: 1 clef=treble
V: 2 clef=bass
K: Bb
[V:1] dB/A/G & D3- | 
[V:2] B,3 & G,3- | 
[V:1] A3 & D3 | 
[V:2] CA,/B,/C & G,3 | 
[V:1] dB/A/G & D3 | 
[V:2] B,3 & G,3- | 
[V:1] A3 & E3 | 
[V:2] CA,/B,/C & G,3 | 
[V:1] G2F & DE2 | 
[V:2] B,2A, & G,E,F, | 
[V:1] F2B & D3- | 
[V:2] B,A,/G,/F, & B,,3 | 
[V:1] FE2 & DCB, | 
[V:2] _A,G,2- & =B,,C,2 | 
[V:1] D3 & A,3 | 
[V:2] G,^F,/=E,/F, & D,3 | 
[V:1] dB/A/G & D3- | 
[V:2] B,3 & G,,3- | 
[V:1] A3 & D3- | 
[V:2] CA,/B,/C & G,,3- | 
[V:1] dB/A/G & D3 | 
[V:2] B,3 & G,,3- | 
[V:1] A3 & E3 | 
[V:2] CA,/B,/C & G,,3 | 
[V:1] G2F & DE2 | 
[V:2] B,2A, & G,E,F, | 
[V:1] F2B & D3- | 
[V:2] B,A,/G,/F, & B,,3 | 
[V:1] F/E/DC & D/C<B,A,/ | 
[V:2] G,F,2- & =B,,/C,/F,F,, | 
[V:1] !fermata!D3 & B,3 | 
[V:2] F,3 & !fermata!B,,3 | 
[V:1] D^F/G/A & D^F/G/A | 
[V:2] D,^F,/G,/A, & D,^F,/G,/A, | 
[V:1] D2z & D2x | 
[V:2] x2D & D,2z | 
[V:1] agb & cBG | 
[V:2] z3 | 
[V:1] a3 & [^f3d3] | 
[V:2] z3 | 
[V:1] D^F/G/A & D^F/G/A | 
[V:2] D,^F,/G,/A, & D,^F,/G,/A, | 
[V:1] D2z & D2x | 
[V:2] D,2z & D,2C, | 
[V:1] GAB & D^FG | 
[V:2] zD2- & B,,A,,G,, | 
[V:1] !fermata!A3 & ^F3 | 
[V:2] D3 & !fermata!D,3 | 
[V:1] dB/A/G & D3- | 
[V:2] B,3 & G,,3- | 
[V:1] A3 & D3- | 
[V:2] CA,/B,/C & G,,3- | 
[V:1] dB/A/G & D3 | 
[V:2] B,3 & G,,3- | 
[V:1] A^F/G/A & E3 | 
[V:2] C3 & G,,3 | 
[V:1] dB/A/G & D3 | 
[V:2] B,3 & G,,3 | 
[V:1] !fermata!e>!accent!G!accent!A/!accent!B/ & [GE]>GA/B/ | 
[V:2] C>!accent!G,!accent!A,/!accent!B,/ & !fermata!C,>G,A,/B,/ | 
[V:1] !accent!d>cB/c/ & d>cB/c/ | 
[V:2] D>CB,/C/ & D>CB,/C/ | 
[V:1] B/A/G/F/E/D/ & B/A/G/F/E/D/ | 
[V:2] B,/A,/G,/F,/E,/D,/ & B,/A,/G,/F,/E,/D,/ | 
[V:1] C/B,/A,D & C/B,/A,D | 
[V:2] C,/B,,/A,,D, & C,/B,,/A,,D, | 
[V:1] G,2x & G,2z | 
[V:2] G,,2z & G,,3- | 
[V:1] ed3/=B/ & [BG][_A2F2] | 
[V:2] G,3- & G,,3- | 
[V:1] d2c & [G3E3] | 
[V:2] G,3- & G,,3 | 
[V:1] B!accent!B3/A/ & [GD][^F2C2] | 
[V:2] G,3- & G,,3- | 
[V:1] G3 & [D3B,3] | 
[V:2] G,3 & G,,3 | 
[V:1] E!accent!D3/=B,/ | 
[V:2] [B,G,][_A,2F,2] & G,,3- | 
[V:1] D2C | 
[V:2] [G,3-E,3] & G,,3- | 
[V:1] B,!accent!B,3/A,/ | 
[V:2] [G,D,][^F,2C,2] & G,,3 | 
[V:1] G,zz | 
[V:2] [D,B,,]zz & G,,^C,,D,, | 
[V:1] z3 & z3 | 
[V:2] z3 & B,,2A,, | 
[V:1] [GDB,]^CD | 
[V:2] G,,zz & G,,x2 | 
[V:1] B2A & z3 | 
[V:2] z3 & z3 | 
[V:1] [A3^F3] & C3 | 
[V:2] D,E,D, | 
[V:1] [G3D3]- & B,3- | 
[V:2] G,D,B,,/A,,/ | 
[V:1] [G3D3] & B,3 |]  
[V:2] !fermata!G,,3 |]  


